icons/joints_fill.svg

<svg width="48" height="48" viewBox="0 0 48 48" fill="none" xmlns="http://www.w3.org/2000/svg">
<path fill-rule="evenodd" clip-rule="evenodd" d="M19 4C19.5523 4 20 4.44772 20 5L20 13.3432C20 14.404 19.5786 15.4214 18.8284 16.1716L18.3246 16.6755C17.0407 17.9593 17.0407 20.0408 18.3246 21.3246C19.3251 22.3251 20.8537 22.5732 22.1193 21.9404L22.3617 21.8192C23.393 21.3035 24.607 21.3035 25.6383 21.8192L25.8807 21.9404C27.1463 22.5732 28.6749 22.3251 29.6754 21.3246C30.9593 20.0408 30.9593 17.9593 29.6754 16.6755L29.1716 16.1716C28.4214 15.4214 28 14.404 28 13.3432L28 5C28 4.44772 28.4477 4 29 4C29.5523 4 30 4.44772 30 5V7.02425C36.9912 9.49527 42 16.1627 42 24C42 31.8373 36.9912 38.5048 30 40.9758V43C30 43.5523 29.5523 44 29 44C28.4477 44 28 43.5523 28 43L28 34.6569C28 33.596 28.4214 32.5786 29.1716 31.8284L29.6754 31.3246C30.9593 30.0408 30.9593 27.9593 29.6754 26.6755C28.6749 25.6749 27.1463 25.4268 25.8807 26.0597L25.6383 26.1809C24.607 26.6965 23.393 26.6965 22.3617 26.1809L22.1193 26.0597C20.8537 25.4268 19.3251 25.6749 18.3246 26.6755C17.0407 27.9593 17.0407 30.0407 18.3246 31.3246L18.8284 31.8284C19.5786 32.5786 20 33.596 20 34.6569L20 43C20 43.5523 19.5523 44 19 44C18.4477 44 18 43.5523 18 43V40.9758C11.0088 38.5048 6 31.8373 6 24C6 16.1627 11.0088 9.49527 18 7.02425V5C18 4.44772 18.4477 4 19 4Z" fill="black"/>
</svg>

<svg
  xmlns="http://www.w3.org/2000/svg"
  width="24"
  height="24"
  viewBox="0 0 24 24"
  fill="none"
  stroke="currentColor"
  stroke-width="2"
  stroke-linecap="round"
  stroke-linejoin="round"
>
  <path
    fill-rule="evenodd"
    d="M19 4a1 1 0 0 1 1 1v8.343a4 4 0 0 1-1.172 2.829l-.503.503a3.287 3.287 0 0 0 3.794 5.265l.243-.12a3.66 3.66 0 0 1 3.276 0l.243.12a3.287 3.287 0 0 0 3.794-5.265l-.503-.503A4 4 0 0 1 28 13.343V5a1 1 0 1 1 2 0v2.024C36.991 9.495 42 16.163 42 24s-5.009 14.505-12 16.976V43a1 1 0 1 1-2 0v-8.343a4 4 0 0 1 1.172-2.829l.503-.503a3.287 3.287 0 0 0-3.794-5.265l-.243.12a3.66 3.66 0 0 1-3.276 0l-.243-.12a3.287 3.287 0 0 0-3.794 5.265l.503.503A4 4 0 0 1 20 34.657V43a1 1 0 1 1-2 0v-2.024C11.009 38.505 6 31.837 6 24S11.009 9.495 18 7.024V5a1 1 0 0 1 1-1"
    clip-rule="evenodd"
  />
</svg>
